src/icons/grey/notification-5.svg

<svg xmlns="http://www.w3.org/2000/svg" xmlns:xlink="http://www.w3.org/1999/xlink" viewBox="0 0 64 64">
  <defs>
    <path id="b" d="M58.6682942 33.4215668c-.9643773-2.08574-2.4097131-3.9035789-4.193725-5.3112344.046968-.4036748.0708853-.8116057.0708853-1.2232212 0-8.7064803-10.7007644-15.764477-23.9008264-15.764477-13.200062 0-23.90082645 7.0579967-23.90082645 15.764477 0 3.7942172 2.03223505 7.2753627 5.41792325 9.9957265.9535649 3.1010866.3949246 6.5962718-1.675921 10.4855555-.0990736.1860716-.1913618.3742694-.2915859.5600486 1.7766537-.1515808 3.5724085-.6483592 5.3909295-1.5588996 1.371962-.7874304 2.6881752-1.7866971 3.8111477-2.8909174l2.0667191-2.0322075c2.8268721.776453 5.9283366 1.2051709 9.1816138 1.2051709.2332548 0 .4657291-.0022039.6973778-.0065818.4538902 2.0524604 1.3427017 3.9414928 2.5648137 5.5654767-1.1032478.0885845-2.2196238.1334926-3.3447482.1334926-2.5165946 0-4.9966561-.2240271-7.4030524-.6676639-1.4930677 1.4716373-3.2400707 2.7968681-5.0888873 3.8438005C8.19180899 56.5641934 0 51.638752 0 51.638752s7.61626224-6.592708 6.37772876-12.3719766c-3.4077638-3.5610847-5.25418485-7.8560948-5.25418485-12.4129957 0-4.4710765 1.84701996-8.7660866 5.25418485-12.3278023C7.61605716 8.74829665.00252205 2.15681509 6.3e-7 2.15463234c.00243608-.00146559 8.19327752-4.92532268 18.07013107.11863917 1.8488166 1.04693238 3.5964185 2.37153218 5.0888873 3.84380055 2.4057974-.44426787 4.8864578-.66829499 7.4030524-.66829499 7.5336135 0 14.6761427 2.01498197 20.1105976 5.67261913 2.8142499 1.8950801 5.0511564 4.1435552 6.6478345 6.683581C59.0986495 20.6352916 60 23.6789052 60 26.9402352c0 2.2343091-.4467581 4.4048093-1.3317058 6.4813316zm-6.0714649-12.5423449l.0060158.0094865a54.88627861 54.88627861 0 0 0-.0030086-.0047427 62.25256027 62.25256027 0 0 0-.0030072-.0047438z"/>
    <filter id="a" width="111.1%" height="111.2%" x="-6.1%" y="-5.6%" filterUnits="objectBoundingBox">
      <feMorphology in="SourceAlpha" operator="dilate" radius=".5" result="shadowSpreadOuter1"/>
      <feOffset in="shadowSpreadOuter1" result="shadowOffsetOuter1"/>
      <feGaussianBlur in="shadowOffsetOuter1" result="shadowBlurOuter1" stdDeviation=".5"/>
      <feColorMatrix in="shadowBlurOuter1" values="0 0 0 0 0 0 0 0 0 0 0 0 0 0 0 0 0 0 0.05 0"/>
    </filter>
    <path id="c" d="M19.0811772 30.2143846c-1.9302871 0-3.495094-1.6072207-3.495094-3.5898279s1.5648069-3.5898279 3.495094-3.5898279c1.930287 0 3.4950939 1.6072207 3.4950939 3.5898279s-1.5648069 3.5898279-3.4950939 3.5898279zm11.2524975 0c-1.9302871 0-3.495094-1.6072207-3.495094-3.5898279s1.5648069-3.5898279 3.495094-3.5898279c1.930287 0 3.4950939 1.6072207 3.4950939 3.5898279s-1.5648069 3.5898279-3.4950939 3.5898279zm7.7784344-3.1937589c-.0138975-.130059-.0210309-.2622084-.0210309-.396069 0-1.9826072 1.5648069-3.5898279 3.495094-3.5898279 1.3691471 0 2.5544203.8085968 3.1278408 1.9862112-2.402504.1283338-4.649736.8414931-6.6019039 1.9996857z"/>
    <filter id="d" width="103.4%" height="113.9%" x="-1.7%" y="-7%" filterUnits="objectBoundingBox">
      <feGaussianBlur in="SourceAlpha" result="shadowBlurInner1" stdDeviation=".5"/>
      <feOffset in="shadowBlurInner1" result="shadowOffsetInner1"/>
      <feComposite in="shadowOffsetInner1" in2="SourceAlpha" k2="-1" k3="1" operator="arithmetic" result="shadowInnerInner1"/>
      <feColorMatrix in="shadowInnerInner1" values="0 0 0 0 0 0 0 0 0 0 0 0 0 0 0 0 0 0 0.1 0"/>
    </filter>
  </defs>
  <g fill="none" fill-rule="evenodd">
    <g fill-rule="nonzero">
      <g transform="translate(2 5)">
        <use fill="#000" filter="url(#a)" xlink:href="#b"/>
        <use fill="#9EA2A8" xlink:href="#b"/>
      </g>
      <path fill="#FFF" d="M56.4745692 33.1103324C54.0058894 31.1624471 50.8886967 30 47.5 30 39.4918711 30 33 36.4918711 33 44.5c0 1.0799802.1180699 2.1323836.3420059 3.1450064-.2316487.0043779-.464123.0065818-.6973778.0065818-3.2532772 0-6.3547417-.4287179-9.1816138-1.2051709l-2.0667191 2.0322075c-1.1229725 1.1042203-2.4391857 2.103487-3.8111477 2.8909174-1.818521.9105404-3.6142758 1.4073188-5.3909295 1.5588996.1002241-.1857792.1925123-.373977.2915859-.5600486 2.0708456-3.8892837 2.6294859-7.3844689 1.675921-10.4855555-3.3856882-2.7203638-5.41792325-6.2015093-5.41792325-9.9957265 0-8.7064803 10.70076445-15.764477 23.90082645-15.764477s23.9008264 7.0579967 23.9008264 15.764477c0 .4116155-.0239173.8195464-.0708853 1.2232212z"/>
      <g transform="translate(2 5)">
        <use fill="#9EA2A8" xlink:href="#c"/>
        <use fill="#000" filter="url(#d)" xlink:href="#c"/>
      </g>
    </g>
    <path fill="#F5455C" fill-rule="nonzero" d="M47.5 56C41.14872538 56 36 50.8512746 36 44.5 36 38.14872538 41.14872538 33 47.5 33 53.8512746 33 59 38.14872538 59 44.5 59 50.8512746 53.8512746 56 47.5 56z"/>
    <path fill="#FFF" d="M42.9 39h8.8v2.2h-6.6v2.2h5.5v1.1h1.1v4.4h-1.1V50H44v-1.1h-1.1v-2.2h2.2v1.1h4.4v-2.2h-6.6z"/>
  </g>
</svg>

<?xml version="1.0" encoding="UTF-8"?>
<svg xmlns="http://www.w3.org/2000/svg" xmlns:xlink="http://www.w3.org/1999/xlink" version="1.1" viewBox="0 0 64 64">
	<defs>
		<path d="M58.6682942,33.4215668 C57.7039169,31.3358268 56.2585811,29.5179879 54.4745692,28.1103324 C54.5215372,27.7066576 54.5454545,27.2987267 54.5454545,26.8871112 C54.5454545,18.1806309 43.8446901,11.1226342 30.6446281,11.1226342 C17.4445661,11.1226342 6.74380165,18.1806309 6.74380165,26.8871112 C6.74380165,30.6813284 8.7760367,34.1624739 12.1617249,36.8828377 C13.1152898,39.9839243 12.5566495,43.4791095 10.4858039,47.3683932 C10.3867303,47.5544648 10.2944421,47.7426626 10.194218,47.9284418 C11.9708717,47.776861 13.7666265,47.2800826 15.5851475,46.3695422 C16.9571095,45.5821118 18.2733227,44.5828451 19.3962952,43.4786248 L21.4630143,41.4464173 C24.2898864,42.2228703 27.3913509,42.6515882 30.6446281,42.6515882 C30.8778829,42.6515882 31.1103572,42.6493843 31.3420059,42.6450064 C31.7958961,44.6974668 32.6847076,46.5864992 33.9068196,48.2104831 C32.8035718,48.2990676 31.6871958,48.3439757 30.5620714,48.3439757 C28.0454768,48.3439757 25.5654153,48.1199486 23.159019,47.6763118 C21.6659513,49.1479491 19.9189483,50.4731799 18.0701317,51.5201123 C8.19180899,56.5641934 3.55271368e-15,51.638752 3.55271368e-15,51.638752 C3.55271368e-15,51.638752 7.61626224,45.046044 6.37772876,39.2667754 C2.96996496,35.7056907 1.12354391,31.4106806 1.12354391,26.8537797 C1.12354391,22.3827032 2.97056387,18.0876931 6.37772876,14.5259774 C7.61605716,8.74829665 0.00252204728,2.15681509 6.26408435e-07,2.15463234 C0.00243671048,2.15316675 8.19327815,-2.77069034 18.0701317,2.27327151 C19.9189483,3.32020389 21.6665502,4.64480369 23.159019,6.11707206 C25.5648164,5.67280419 28.0454768,5.44877707 30.5620714,5.44877707 C38.0956849,5.44877707 45.2382141,7.46375904 50.672669,11.1213962 C53.4869189,13.0164763 55.7238254,15.2649514 57.3205035,17.8049772 C59.0986495,20.6352916 60,23.6789052 60,26.9402352 C60,29.1745443 59.5532419,31.3450445 58.6682942,33.4215668 Z M52.5968293,20.8792219 L52.6028451,20.8887084 C52.6018423,20.8871274 52.6008394,20.8855465 52.5998365,20.8839657 C52.5988342,20.8823844 52.5978318,20.8808032 52.5968293,20.8792219 Z" id="path-1"></path>
		<filter x="-6.1%" y="-5.6%" width="111.1%" height="111.2%" filterUnits="objectBoundingBox" id="filter-2">
			<feMorphology radius="0.5" operator="dilate" in="SourceAlpha" result="shadowSpreadOuter1"></feMorphology>
			<feOffset dx="0" dy="0" in="shadowSpreadOuter1" result="shadowOffsetOuter1"></feOffset>
			<feGaussianBlur stdDeviation="0.5" in="shadowOffsetOuter1" result="shadowBlurOuter1"></feGaussianBlur>
			<feColorMatrix values="0 0 0 0 0   0 0 0 0 0   0 0 0 0 0  0 0 0 0.05 0" type="matrix" in="shadowBlurOuter1"></feColorMatrix>
		</filter>
		<path d="M19.0811772,30.2143846 C17.1508901,30.2143846 15.5860832,28.6071639 15.5860832,26.6245567 C15.5860832,24.6419495 17.1508901,23.0347288 19.0811772,23.0347288 C21.0114642,23.0347288 22.5762711,24.6419495 22.5762711,26.6245567 C22.5762711,28.6071639 21.0114642,30.2143846 19.0811772,30.2143846 Z M30.3336747,30.2143846 C28.4033876,30.2143846 26.8385807,28.6071639 26.8385807,26.6245567 C26.8385807,24.6419495 28.4033876,23.0347288 30.3336747,23.0347288 C32.2639617,23.0347288 33.8287686,24.6419495 33.8287686,26.6245567 C33.8287686,28.6071639 32.2639617,30.2143846 30.3336747,30.2143846 Z M38.1121091,27.0206257 C38.0982116,26.8905667 38.0910782,26.7584173 38.0910782,26.6245567 C38.0910782,24.6419495 39.6558851,23.0347288 41.5861722,23.0347288 C42.9553193,23.0347288 44.1405925,23.8433256 44.714013,25.02094 C42.311509,25.1492738 40.064277,25.8624331 38.1121091,27.0206257 Z" id="path-3"></path>
		<filter x="-1.7%" y="-7.0%" width="103.4%" height="113.9%" filterUnits="objectBoundingBox" id="filter-4">
			<feGaussianBlur stdDeviation="0.5" in="SourceAlpha" result="shadowBlurInner1"></feGaussianBlur>
			<feOffset dx="0" dy="0" in="shadowBlurInner1" result="shadowOffsetInner1"></feOffset>
			<feComposite in="shadowOffsetInner1" in2="SourceAlpha" operator="arithmetic" k2="-1" k3="1" result="shadowInnerInner1"></feComposite>
			<feColorMatrix values="0 0 0 0 0   0 0 0 0 0   0 0 0 0 0  0 0 0 0.1 0" type="matrix" in="shadowInnerInner1"></feColorMatrix>
		</filter>
	</defs>
	<g id="Tray-icon---notification-n5---Grey" stroke="none" stroke-width="1" fill="none" fill-rule="evenodd">
		<g id="rc-icon" transform="translate(2.000000, 5.000000)" fill-rule="nonzero">
			<g id="RC-icom">
				<g id="Combined-Shape">
					<use fill="black" fill-opacity="1" filter="url(#filter-2)" xlink:href="#path-1"></use>
					<use fill="#9EA2A8" xlink:href="#path-1"></use>
				</g>
				<path d="M54.4745692,28.1103324 C52.0058894,26.1624471 48.8886967,25 45.5,25 C37.4918711,25 31,31.4918711 31,39.5 C31,40.5799802 31.1180699,41.6323836 31.3420059,42.6450064 C31.1103572,42.6493843 30.8778829,42.6515882 30.6446281,42.6515882 C27.3913509,42.6515882 24.2898864,42.2228703 21.4630143,41.4464173 L19.3962952,43.4786248 C18.2733227,44.5828451 16.9571095,45.5821118 15.5851475,46.3695422 C13.7666265,47.2800826 11.9708717,47.776861 10.194218,47.9284418 C10.2944421,47.7426626 10.3867303,47.5544648 10.4858039,47.3683932 C12.5566495,43.4791095 13.1152898,39.9839243 12.1617249,36.8828377 C8.7760367,34.1624739 6.74380165,30.6813284 6.74380165,26.8871112 C6.74380165,18.1806309 17.4445661,11.1226342 30.6446281,11.1226342 C43.8446901,11.1226342 54.5454545,18.1806309 54.5454545,26.8871112 C54.5454545,27.2987267 54.5215372,27.7066576 54.4745692,28.1103324 Z" id="Combined-Shape" fill="#FFFFFF"></path>
				<g id="circles">
					<use fill="#9EA2A8" xlink:href="#path-3"></use>
					<use fill="black" fill-opacity="1" filter="url(#filter-4)" xlink:href="#path-3"></use>
				</g>
			</g>
		</g>
		<g id="number" transform="translate(36.000000, 33.000000)">
			<path d="M11.5,23 C5.14872538,23 0,17.8512746 0,11.5 C0,5.14872538 5.14872538,0 11.5,0 C17.8512746,0 23,5.14872538 23,11.5 C23,17.8512746 17.8512746,23 11.5,23 Z" id="Path" fill="#F5455C" fill-rule="nonzero"></path>
			<polygon id="5" fill="#FFFFFF" points="6.9 6 15.7 6 15.7 8.2 9.1 8.2 9.1 10.4 14.6 10.4 14.6 11.5 15.7 11.5 15.7 15.9 14.6 15.9 14.6 17 8 17 8 15.9 6.9 15.9 6.9 13.7 9.1 13.7 9.1 14.8 13.5 14.8 13.5 12.6 6.9 12.6"></polygon>
		</g>
	</g>
</svg>
